X: 4
T: Drowsy Maggie
T: Ceol Rince na h\'Eirann 4-part version
S: Michael (Master) McDermott, Tyrone
B: Ceol Rince na h\'Eireann 4, Breathnach/Small
Z: Paul de Grae <sullgrae:iol.ie> irtrad-l 2000-08-28
M: 4/4
L: 1/8
R: reel
K: Edor
|: ~E2 BE dEBE | ~E2 Bc dAFD |\
[1 ~E2 BE dEBB | BABc dAFD :|\
[2 ~E2 BE dEBB | BABc dAFA |]
|: d2 fd c2 ec | d2 fd faaf |\
[1 d2 fd c2 ec | BABc dAFA :|\
[2 (3bag af gfed | BABc dAFA |]
|: dBfB dBfB | cAeA cAeA |\
[1 dBfB ~B2 fB | defg aecA :|\
[2 (3Bcd (3efg aecA | ~B2 Bc dAFA |]
|: dffe dfBf | ce e2 ceAe |\
[1 dffe defg | agfg aece :|\
[2 afge fded | BABc dAFD |]
